assets/icons/24px/stroke/car-24px.svg

<svg width="24" height="24" viewBox="0 0 24 24" fill="none" xmlns="http://www.w3.org/2000/svg">
<path fill-rule="evenodd" clip-rule="evenodd" d="M9.56744 2H14.4326C15.1349 1.99996 15.7482 1.99992 16.2508 2.06003C16.7934 2.12491 17.3165 2.2698 17.7847 2.63539C18.2529 3.00097 18.5203 3.47327 18.7149 3.9839C18.8951 4.45693 19.0438 5.05197 19.2141 5.73333L20.3147 10.1357C21.2953 10.4735 22 11.404 22 12.4996V14C22 14.5544 21.9052 15.1466 21.7845 15.6852C21.7725 15.7387 21.7607 15.7919 21.7489 15.845C21.538 16.7946 21.3416 17.6796 20.5143 18.3419C20.1944 18.5981 19.856 18.7527 19.5 18.8468V21C19.5 21.5523 19.0523 22 18.5 22C17.9477 22 17.5 21.5523 17.5 21V19C17.4654 19 17.4306 19 17.3956 19L6.04974 19C6.03314 19 6.01656 19 6 19V21C6 21.5523 5.55228 22 5 22C4.44772 22 4 21.5523 4 21V18.7179C3.80219 18.6281 3.6051 18.5098 3.40793 18.354C3.04154 18.0646 2.77655 17.7578 2.58917 17.37C2.4318 17.0443 2.34802 16.6909 2.2763 16.3884C2.27241 16.372 2.26855 16.3558 2.26472 16.3397C2.11039 15.6909 2 14.9087 2 14V12.4987C2 11.4025 2.70509 10.4731 3.68531 10.1356L4.77239 5.78733C4.77691 5.76927 4.78141 5.75127 4.78589 5.73333C4.95619 5.05197 5.10491 4.45693 5.28512 3.9839C5.47965 3.47327 5.74708 3.00097 6.21532 2.63539C6.68355 2.2698 7.20661 2.12491 7.74917 2.06003C8.25178 1.99992 8.86512 1.99996 9.56744 2ZM5.78078 10H18.2192L17.2873 6.2724C17.0995 5.52122 16.9785 5.04388 16.8459 4.69591C16.7229 4.37308 16.6281 4.2698 16.5539 4.2118C16.4796 4.1538 16.3564 4.0869 16.0134 4.04588C15.6436 4.00167 15.1512 4 14.3769 4H9.62311C8.84881 4 8.35637 4.00167 7.98663 4.04588C7.64361 4.0869 7.52043 4.1538 7.44614 4.2118C7.37185 4.2698 7.27708 4.37308 7.15409 4.69591C7.02152 5.04388 6.90047 5.52122 6.71268 6.2724L5.78078 10ZM4.5 12C4.22273 12 4 12.2237 4 12.4987V14C4 14.7454 4.0904 15.3723 4.21042 15.8768C4.29944 16.251 4.33789 16.3921 4.38997 16.4999C4.42059 16.5632 4.46902 16.6435 4.64774 16.7847C4.78259 16.8912 4.88498 16.9335 5.04284 16.9605C5.25481 16.9968 5.52753 17 6.04974 17H17.3377C18.0323 17 18.4542 16.9979 18.7739 16.9543C19.0533 16.9163 19.1702 16.856 19.2644 16.7806C19.4869 16.6025 19.5642 16.446 19.8329 15.2476C19.938 14.7791 20 14.3473 20 14V12.4996C20 12.2238 19.7765 12 19.5 12H4.5Z" fill="white"/>
<path d="M8 14C8 14.5523 7.55228 15 7 15C6.44772 15 6 14.5523 6 14C6 13.4477 6.44772 13 7 13C7.55228 13 8 13.4477 8 14Z" fill="white"/>
<path d="M18 14C18 14.5523 17.5523 15 17 15C16.4477 15 16 14.5523 16 14C16 13.4477 16.4477 13 17 13C17.5523 13 18 13.4477 18 14Z" fill="white"/>
</svg>

<svg width="24" height="24" fill="none" xmlns="http://www.w3.org/2000/svg"><path fill-rule="evenodd" clip-rule="evenodd" d="M9.567 2h4.866c.702 0 1.315 0 1.818.06.542.065 1.066.21 1.534.575.468.366.735.838.93 1.349.18.473.329 1.068.5 1.75l1.1 4.402A2.5 2.5 0 0 1 22 12.5V14c0 .554-.095 1.147-.215 1.685l-.036.16c-.211.95-.407 1.835-1.235 2.497-.32.256-.658.41-1.014.505V21a1 1 0 1 1-2 0v-2H6v2a1 1 0 1 1-2 0v-2.282a2.853 2.853 0 0 1-.592-.364c-.366-.29-.631-.596-.819-.984-.157-.326-.241-.68-.313-.982l-.011-.048A10.098 10.098 0 0 1 2 14v-1.501a2.5 2.5 0 0 1 1.685-2.363l1.087-4.349.014-.054c.17-.681.319-1.276.5-1.75.194-.51.461-.982.93-1.348.468-.365.99-.51 1.533-.575C8.252 2 8.865 2 9.567 2zm-3.786 8h12.438l-.932-3.728c-.188-.75-.308-1.228-.441-1.576-.123-.323-.218-.426-.292-.484-.074-.058-.198-.125-.54-.166-.37-.044-.863-.046-1.637-.046H9.623c-.774 0-1.267.002-1.636.046-.343.04-.467.108-.54.166-.075.058-.17.161-.293.484-.132.348-.254.825-.441 1.576L5.78 10zM4.5 12c-.277 0-.5.224-.5.499V14c0 .745.09 1.372.21 1.877.09.374.128.515.18.623.03.063.079.143.258.285a.775.775 0 0 0 .395.175c.212.037.485.04 1.007.04h11.288c.694 0 1.116-.002 1.436-.046.28-.038.396-.098.49-.173.223-.178.3-.335.569-1.533.105-.469.167-.9.167-1.248v-1.5a.5.5 0 0 0-.5-.5h-15z" fill="#fff"/><path d="M8 14a1 1 0 1 1-2 0 1 1 0 0 1 2 0zm10 0a1 1 0 1 1-2 0 1 1 0 0 1 2 0z" fill="#fff"/></svg>
